packages/core/assets/Icons/menu_open.svg

<svg viewBox="0 0 20 20" fill="none" xmlns="http://www.w3.org/2000/svg">
<path d="M3.33333 15C3.09722 15 2.89931 14.9201 2.73958 14.7604C2.57986 14.6007 2.5 14.4028 2.5 14.1667C2.5 13.9306 2.57986 13.7326 2.73958 13.5729C2.89931 13.4132 3.09722 13.3333 3.33333 13.3333H12.5C12.7361 13.3333 12.934 13.4132 13.0938 13.5729C13.2535 13.7326 13.3333 13.9306 13.3333 14.1667C13.3333 14.4028 13.2535 14.6007 13.0938 14.7604C12.934 14.9201 12.7361 15 12.5 15H3.33333ZM15.75 13.5833L12.75 10.5833C12.5833 10.4167 12.5 10.2222 12.5 10C12.5 9.77778 12.5833 9.58333 12.75 9.41667L15.75 6.41667C15.9028 6.26389 16.0972 6.1875 16.3333 6.1875C16.5694 6.1875 16.7639 6.26389 16.9167 6.41667C17.0694 6.56944 17.1458 6.76389 17.1458 7C17.1458 7.23611 17.0694 7.43056 16.9167 7.58333L14.5 10L16.9167 12.4167C17.0694 12.5694 17.1458 12.7639 17.1458 13C17.1458 13.2361 17.0694 13.4306 16.9167 13.5833C16.7639 13.7361 16.5694 13.8125 16.3333 13.8125C16.0972 13.8125 15.9028 13.7361 15.75 13.5833ZM3.33333 10.8333C3.09722 10.8333 2.89931 10.7535 2.73958 10.5938C2.57986 10.434 2.5 10.2361 2.5 10C2.5 9.76389 2.57986 9.56597 2.73958 9.40625C2.89931 9.24653 3.09722 9.16667 3.33333 9.16667H10C10.2361 9.16667 10.434 9.24653 10.5938 9.40625C10.7535 9.56597 10.8333 9.76389 10.8333 10C10.8333 10.2361 10.7535 10.434 10.5938 10.5938C10.434 10.7535 10.2361 10.8333 10 10.8333H3.33333ZM3.33333 6.66667C3.09722 6.66667 2.89931 6.58681 2.73958 6.42708C2.57986 6.26736 2.5 6.06944 2.5 5.83333C2.5 5.59722 2.57986 5.39931 2.73958 5.23958C2.89931 5.07986 3.09722 5 3.33333 5H12.5C12.7361 5 12.934 5.07986 13.0938 5.23958C13.2535 5.39931 13.3333 5.59722 13.3333 5.83333C13.3333 6.06944 13.2535 6.26736 13.0938 6.42708C12.934 6.58681 12.7361 6.66667 12.5 6.66667H3.33333Z" fill="currentColor"/>
</svg>

<svg xmlns="http://www.w3.org/2000/svg" width="20" height="20" fill="none" viewBox="0 0 20 20">
  <path fill="#201F1F" d="M3.333 15a.806.806 0 0 1-.593-.24.806.806 0 0 1-.24-.593c0-.236.08-.434.24-.594.16-.16.357-.24.593-.24H12.5c.236 0 .434.08.594.24.16.16.24.358.24.594s-.08.434-.24.593a.807.807 0 0 1-.594.24H3.333Zm12.417-1.417-3-3A.8.8 0 0 1 12.5 10a.8.8 0 0 1 .25-.583l3-3a.79.79 0 0 1 .583-.23.79.79 0 0 1 .584.23.79.79 0 0 1 .229.583.79.79 0 0 1-.23.583L14.5 10l2.417 2.417a.79.79 0 0 1 .229.583.79.79 0 0 1-.23.583.79.79 0 0 1-.583.23.79.79 0 0 1-.583-.23Zm-12.417-2.75a.806.806 0 0 1-.593-.24A.807.807 0 0 1 2.5 10c0-.236.08-.434.24-.594.16-.16.357-.24.593-.24H10c.236 0 .434.08.594.24.16.16.24.358.24.594s-.08.434-.24.594a.807.807 0 0 1-.594.24H3.333Zm0-4.166a.806.806 0 0 1-.593-.24.806.806 0 0 1-.24-.594c0-.236.08-.434.24-.593.16-.16.357-.24.593-.24H12.5c.236 0 .434.08.594.24.16.16.24.357.24.593s-.08.434-.24.594a.807.807 0 0 1-.594.24H3.333Z"/>
</svg>
